X: 7
T: Larry McDonagh's
M: 3/4
L: 1/8
R: slip/hop jig
K: Dmaj
|: FA AB A2 | FA AA B/c/d | FA AB A2 | ef ed BA :|
|: fa af d2 | ef ed BA | fd ec dA | B=c BA FE :|
